icons/glyphs/glyph-levels.svg

<?xml version="1.0" encoding="UTF-8" standalone="no"?><svg height="22" viewBox="0 0 22 22" width="22" xmlns="http://www.w3.org/2000/svg"><sodipodi:namedview/><metadata><rdf:RDF><cc:Work><dc:format>image/svg+xml</dc:format><dc:type/><dc:title/></cc:Work></rdf:RDF></metadata><path d="m18.646484 0v3.3535156h3.353516v-3.3535156zm-18.646484 4.6816406v3.3535156h3.3535156v-3.3535156zm13.984375 0v3.3535156h3.353516v-3.3535156zm-9.3222656 4.7148438v3.3535156h3.3535156v-3.3535156zm4.6621094 0v3.3535156h3.3515622v-3.3535156z" fill="#fff" stroke-width=".517"/><path d="m18.646484 4.6816406v3.3535156h3.353516v-3.3535156zm-18.646484 4.7148438v3.3535156h3.3535156v-3.3535156zm13.984375 0v3.3535156h3.353516v-3.3535156zm4.662109 0v3.3535156h3.353516v-3.3535156zm-18.646484 4.6542966v3.353516h3.3535156v-3.353516zm4.6621094 0v3.353516h3.3535156v-3.353516zm4.6621094 0v3.353516h3.3515622v-3.353516zm4.6601562 0v3.353516h3.353516v-3.353516zm4.662109 0v3.353516h3.353516v-3.353516zm-18.646484 4.595703v3.353516h3.3535156v-3.353516zm4.6621094 0v3.353516h3.3535156v-3.353516zm4.6621094 0v3.353516h3.3515622v-3.353516zm4.6601562 0v3.353516h3.353516v-3.353516zm4.662109 0v3.353516h3.353516v-3.353516z" fill="#fff" opacity=".379" stroke-width=".517"/></svg>

<?xml version="1.0" encoding="UTF-8" standalone="no"?>
<!-- Created with Inkscape (http://www.inkscape.org/) -->

<svg
   xmlns:dc="http://purl.org/dc/elements/1.1/"
   xmlns:cc="http://creativecommons.org/ns#"
   xmlns:rdf="http://www.w3.org/1999/02/22-rdf-syntax-ns#"
   xmlns:svg="http://www.w3.org/2000/svg"
   xmlns="http://www.w3.org/2000/svg"
   xmlns:sodipodi="http://sodipodi.sourceforge.net/DTD/sodipodi-0.dtd"
   xmlns:inkscape="http://www.inkscape.org/namespaces/inkscape"
   width="22"
   height="22"
   viewBox="0 0 22 22"
   version="1.1"
   id="svg8"
   inkscape:version="0.92+devel 15645 custom"
   sodipodi:docname="glyph-levels.svg">
  <defs
     id="defs2" />
  <sodipodi:namedview
     id="base"
     pagecolor="#002266"
     bordercolor="#ffffff"
     borderopacity="0.46666667"
     inkscape:pageopacity="0"
     inkscape:pageshadow="2"
     inkscape:zoom="18.500001"
     inkscape:cx="16.621911"
     inkscape:cy="12.794693"
     inkscape:document-units="px"
     inkscape:current-layer="svg8"
     inkscape:document-rotation="0"
     showgrid="false"
     inkscape:showpageshadow="false"
     borderlayer="true"
     units="px"
     fit-margin-top="0"
     fit-margin-left="0"
     fit-margin-right="0"
     fit-margin-bottom="0"
     inkscape:window-width="1920"
     inkscape:window-height="1051"
     inkscape:window-x="0"
     inkscape:window-y="0"
     inkscape:window-maximized="1"
     inkscape:snap-page="true"
     inkscape:snap-bbox="true"
     inkscape:bbox-nodes="true" />
  <metadata
     id="metadata5">
    <rdf:RDF>
      <cc:Work
         rdf:about="">
        <dc:format>image/svg+xml</dc:format>
        <dc:type
           rdf:resource="http://purl.org/dc/dcmitype/StillImage" />
        <dc:title></dc:title>
      </cc:Work>
    </rdf:RDF>
  </metadata>
  <g
     id="g4330"
     inkscape:label="glyph">
    <path
       id="rect4269"
       d="M 18.646484,0 V 3.3535156 H 22 V 0 Z M 0,4.6816406 V 8.0351562 H 3.3535156 V 4.6816406 Z m 13.984375,0 v 3.3535156 h 3.353516 V 4.6816406 Z M 4.6621094,9.3964844 V 12.75 H 8.015625 V 9.3964844 Z m 4.6621094,0 V 12.75 H 12.675781 V 9.3964844 Z"
       style="fill:#ffffff;stroke-width:0.51700002"
       inkscape:connector-curvature="0" />
    <path
       style="opacity:0.37900002;fill:#ffffff;stroke-width:0.51700002"
       d="M 18.646484,4.6816406 V 8.0351562 H 22 V 4.6816406 Z M 0,9.3964844 V 12.75 H 3.3535156 V 9.3964844 Z m 13.984375,0 V 12.75 h 3.353516 V 9.3964844 Z m 4.662109,0 V 12.75 H 22 V 9.3964844 Z M 0,14.050781 v 3.353516 h 3.3535156 v -3.353516 z m 4.6621094,0 v 3.353516 H 8.015625 v -3.353516 z m 4.6621094,0 v 3.353516 h 3.3515622 v -3.353516 z m 4.6601562,0 v 3.353516 h 3.353516 v -3.353516 z m 4.662109,0 v 3.353516 H 22 V 14.050781 Z M 0,18.646484 V 22 h 3.3535156 v -3.353516 z m 4.6621094,0 V 22 H 8.015625 v -3.353516 z m 4.6621094,0 V 22 h 3.3515622 v -3.353516 z m 4.6601562,0 V 22 h 3.353516 v -3.353516 z m 4.662109,0 V 22 H 22 v -3.353516 z"
       id="rect4271"
       inkscape:connector-curvature="0" />
  </g>
</svg>
